icons/share-box-line.svg

<svg viewBox="0 0 24 24" fill="currentColor" xmlns="http://www.w3.org/2000/svg">
    <path d="M10 3V5H5V19H19V14H21V20C21 20.5523 20.5523 21 20 21H4C3.44772 21 3 20.5523 3 20V4C3 3.44772 3.44772 3 4 3H10ZM17.5858 5H13V3H21V11H19V6.41421L12 13.4142L10.5858 12L17.5858 5Z"/>
</svg>

<svg xmlns="http://www.w3.org/2000/svg" viewBox="0 0 24 24">
    <g>
        <path fill="none" d="M0 0h24v24H0z"/>
        <path d="M10 3v2H5v14h14v-5h2v6a1 1 0 0 1-1 1H4a1 1 0 0 1-1-1V4a1 1 0 0 1 1-1h6zm7.586 2H13V3h8v8h-2V6.414l-7 7L10.586 12l7-7z"/>
    </g>
</svg>
